X: 21171
T: Kathleen's Tune
R: waltz
M: 3/4
K: Amajor
EF|A4 GA|B4 AB|c2 A2 f2|e4 f2|e2 c2 A2|A2 B2 c2|F6-|F4 EF|
A4 GA|B4 AB|c2 A2 f2|e4 f2|e2 c2 A2|F2 A2 B2|A6-|A4||
e2|f4 c2|e4 c2|B2 A2 B2|c4 e2|f2 a2 f2|e2 c2 A2|F4 EF|G3 EEF|
A4 GA|B4 AB|c2 A2 f2|e4 f2|e2 c2 A2|F2 A2 B2|A6-|A4||

